img/firefox.svg

<svg fill="#ffffff" height="800" viewBox="0 0 32 32" width="800" xmlns="http://www.w3.org/2000/svg">
    <path d="m29.469 11.061c-.613-1.515-1.617-2.765-2.89-3.66l-.026-.017c.674 1.276 1.187 2.757 1.458 4.321l.013.09.003.025c-1.642-4.096-4.429-5.748-6.706-9.344-.114-.184-.23-.365-.341-.557q-.087-.147-.162-.3c-.087-.165-.16-.356-.211-.557l-.004-.018c0-.019-.015-.035-.034-.037-.004-.001-.008-.002-.013-.002s-.009.001-.013.002l-.007.001-.012.006.006-.01c-2.571 1.601-4.387 4.207-4.905 7.255l-.009.063c-1.057.061-2.039.325-2.927.754l.046-.02c-.124.062-.207.188-.207.333 0 .046.009.091.024.132l-.001-.003c.052.144.187.245.345.245.054 0 .106-.012.152-.033l-.002.001c.733-.354 1.586-.588 2.487-.652l.023-.001.084-.006c.123-.007.266-.012.411-.012.725 0 1.425.106 2.086.302l-.052-.013.119.037c.313.096.568.193.816.303l-.046-.018c.1.045.2.091.297.14l.134.069q.235.123.46.264c1.056.661 1.914 1.546 2.523 2.594l.019.036c-.796-.559-1.786-.893-2.854-.893-.229 0-.454.015-.675.045l.026-.003c1.888 1.039 3.146 3.015 3.146 5.285 0 3.32-2.692 6.012-6.012 6.012-.195 0-.388-.009-.578-.027l.024.002c-.686-.029-1.332-.16-1.936-.379l.045.014c-.267-.095-.489-.193-.703-.305l.031.015c-1.842-.903-3.149-2.651-3.421-4.725l-.003-.031s.671-2.499 4.805-2.499c.759-.325 1.365-.886 1.738-1.589l.009-.019c-1.349-.653-2.503-1.35-3.585-2.141l.065.045c-.527-.52-.777-.77-1-.958-.111-.094-.234-.187-.361-.274l-.015-.01c-.164-.554-.259-1.19-.259-1.849 0-.605.08-1.192.23-1.75l-.011.047c-1.379.676-2.542 1.586-3.487 2.688l-.012.015h-.007c-.341-.854-.539-1.844-.539-2.879 0-.268.013-.533.039-.794l-.003.033c-.186.076-.346.162-.496.263l.009-.006c-.527.379-.991.779-1.418 1.215l-.002.002c-.484.491-.929 1.023-1.329 1.588l-.027.04c-.894 1.251-1.57 2.724-1.936 4.316l-.016.083c-.004.016-.137.608-.237 1.341-.016.112-.032.226-.046.34q-.061.415-.086.834l-.002.043-.029.484-.001.075c.002 8.025 6.508 14.53 14.534 14.53 7.157 0 13.106-5.173 14.311-11.985l.013-.088c.025-.186.044-.372.065-.56.069-.541.109-1.166.109-1.801 0-1.981-.386-3.872-1.086-5.602l.036.1z"/>
</svg>

<?xml version="1.0" encoding="UTF-8" standalone="no"?>
<svg width="100%" height="100%" viewBox="0 0 800 800" version="1.1" xmlns="http://www.w3.org/2000/svg"
     style="fill-rule:evenodd;clip-rule:evenodd;stroke-linejoin:round;stroke-miterlimit:2;">
    <g transform="matrix(16.67,0,0,16.67,133.313,133.288)">
        <path fill="black" d="M29.469,11.061C28.856,9.546 27.852,8.296 26.579,7.401L26.553,7.384C27.227,8.66 27.74,10.141 28.011,11.705L28.024,11.795L28.027,11.82C26.385,7.724 23.598,6.072 21.321,2.476C21.207,2.292 21.091,2.111 20.98,1.919C20.922,1.821 20.868,1.721 20.818,1.619C20.731,1.454 20.658,1.263 20.607,1.062L20.603,1.044C20.603,1.025 20.588,1.009 20.569,1.007C20.565,1.006 20.561,1.005 20.556,1.005C20.551,1.005 20.547,1.006 20.543,1.007L20.536,1.008L20.524,1.014L20.53,1.004C17.959,2.605 16.143,5.211 15.625,8.259L15.616,8.322C14.559,8.383 13.577,8.647 12.689,9.076L12.735,9.056C12.611,9.118 12.528,9.244 12.528,9.389C12.528,9.435 12.537,9.48 12.552,9.521L12.551,9.518C12.603,9.662 12.738,9.763 12.896,9.763C12.95,9.763 13.002,9.751 13.048,9.73L13.046,9.731C13.779,9.377 14.632,9.143 15.533,9.079L15.556,9.078L15.64,9.072C15.763,9.065 15.906,9.06 16.051,9.06C16.776,9.06 17.476,9.166 18.137,9.362L18.085,9.349L18.204,9.386C18.517,9.482 18.772,9.579 19.02,9.689L18.974,9.671C19.074,9.716 19.174,9.762 19.271,9.811L19.405,9.88C19.562,9.962 19.715,10.05 19.865,10.144C20.921,10.805 21.779,11.69 22.388,12.738L22.407,12.774C21.611,12.215 20.621,11.881 19.553,11.881C19.324,11.881 19.099,11.896 18.878,11.926L18.904,11.923C20.792,12.962 22.05,14.938 22.05,17.208C22.05,20.528 19.358,23.22 16.038,23.22C15.843,23.22 15.65,23.211 15.46,23.193L15.484,23.195C14.798,23.166 14.152,23.035 13.548,22.816L13.593,22.83C13.326,22.735 13.104,22.637 12.89,22.525L12.921,22.54C11.079,21.637 9.772,19.889 9.5,17.815L9.497,17.784C9.497,17.784 10.168,15.285 14.302,15.285C15.061,14.96 15.667,14.399 16.04,13.696L16.049,13.677C14.7,13.024 13.546,12.327 12.464,11.536L12.529,11.581C12.002,11.061 11.752,10.811 11.529,10.623C11.418,10.529 11.295,10.436 11.168,10.349L11.153,10.339C10.989,9.785 10.894,9.149 10.894,8.49C10.894,7.885 10.974,7.298 11.124,6.74L11.113,6.787C9.734,7.463 8.571,8.373 7.626,9.475L7.614,9.49L7.607,9.49C7.266,8.636 7.068,7.646 7.068,6.611C7.068,6.343 7.081,6.078 7.107,5.817L7.104,5.85C6.918,5.926 6.758,6.012 6.608,6.113L6.617,6.107C6.09,6.486 5.626,6.886 5.199,7.322L5.197,7.324C4.713,7.815 4.268,8.347 3.868,8.912L3.841,8.952C2.947,10.203 2.271,11.676 1.905,13.268L1.889,13.351C1.885,13.367 1.752,13.959 1.652,14.692C1.636,14.804 1.62,14.918 1.606,15.032C1.565,15.309 1.537,15.587 1.52,15.866L1.518,15.909L1.489,16.393L1.488,16.468C1.49,24.493 7.996,30.998 16.022,30.998C23.179,30.998 29.128,25.825 30.333,19.013L30.346,18.925C30.371,18.739 30.39,18.553 30.411,18.365C30.48,17.824 30.52,17.199 30.52,16.564C30.52,14.583 30.134,12.692 29.434,10.962L29.47,11.062L29.469,11.061Z"
              style="fill-rule:nonzero;"/>
    </g>
</svg>
